static/images/logo_ea_en.svg

<?xml version="1.0" encoding="UTF-8"?>
<svg xmlns="http://www.w3.org/2000/svg" xmlns:xlink="http://www.w3.org/1999/xlink" width="142pt" height="22pt" viewBox="0 0 142 22" version="1.1">
<g>
<path fill="#FFFFFF" d="
M22.551,18.688h1.941l-0.363,-1.465c-0.191,-0.734,-0.438,-1.859,-0.586,-2.836c-0.16,0.977,-0.422,2.102,-0.609,2.836ZM22.895,12.922h1.285l2.348,8.816h-1.301l-0.516,-1.992h-2.402l-0.504,1.992h-1.262l2.352,-8.816
M27.504,12.922h1.438l2.781,7.027c-0.094,-0.719,-0.18,-1.559,-0.18,-2.348v-4.68h1.195v8.816h-1.438l-2.809,-7.051c0.109,0.719,0.207,1.57,0.207,2.371v4.68h-1.195Z
M35.953,13.953v6.754h0.961c1.277,0,1.656,-0.582,1.656,-3.375c0,-2.797,-0.379,-3.379,-1.656,-3.379ZM34.703,12.922h2.309c2.305,0,2.848,1.234,2.848,4.41c0,3.133,-0.559,4.406,-2.848,4.406h-2.309v-8.816
M45.082,18.688h1.938l-0.367,-1.465c-0.188,-0.734,-0.434,-1.859,-0.582,-2.836c-0.164,0.977,-0.418,2.102,-0.609,2.836ZM45.418,12.922h1.289l2.348,8.816h-1.301l-0.52,-1.992h-2.398l-0.5,1.992h-1.262l2.344,-8.816
M51.277,13.98v3.105h0.664c0.977,0,1.629,-0.203,1.629,-1.559c0,-1.344,-0.652,-1.547,-1.629,-1.547ZM50.031,12.922h2.035c1.625,0,2.793,0.609,2.793,2.605c0,1.398,-0.68,2.074,-1.531,2.387l1.871,3.824h-1.426l-1.656,-3.594h-0.84v3.594h-1.246v-8.816
M56.148,17.332c0,-3.297,0.715,-4.57,2.859,-4.57c0.652,0,1.234,0.16,1.52,0.324v1.152c-0.324,-0.176,-0.895,-0.352,-1.438,-0.352c-1.289,0,-1.656,0.582,-1.656,3.445c0,2.887,0.395,3.457,1.656,3.457c0.559,0,1.191,-0.188,1.52,-0.379v1.152c-0.285,0.164,-0.961,0.34,-1.574,0.34c-2.32,0.016,-2.887,-1.273,-2.887,-4.57
M65.969,17.738h-2.688v4h-1.25v-8.816h1.25v3.758h2.688v-3.758h1.246v8.816h-1.246Z
M69.18,21.738h1.25v-8.816h-1.25Z
M71.469,12.922h5.062v1.059h-1.914v7.758h-1.25v-7.758h-1.898Z
M77.574,12.922h4.121v1.059h-2.871v2.699h2.316v1.043h-2.316v2.961h2.871v1.055h-4.121Z
M82.797,17.332c0,-3.297,0.719,-4.57,2.859,-4.57c0.652,0,1.234,0.16,1.52,0.324v1.152c-0.324,-0.176,-0.895,-0.352,-1.438,-0.352c-1.289,0,-1.652,0.582,-1.652,3.445c0,2.887,0.391,3.457,1.652,3.457c0.559,0,1.195,-0.188,1.52,-0.379v1.152c-0.285,0.164,-0.961,0.34,-1.574,0.34c-2.32,0.016,-2.887,-1.273,-2.887,-4.57
M87.91,12.922h5.062v1.059h-1.914v7.758h-1.246v-7.758h-1.902Z
M93.922,19.082v-6.16h1.246v6.215c0,1.301,0.449,1.68,1.355,1.68c0.91,0,1.359,-0.379,1.359,-1.68v-6.215h1.246v6.16c0,2.008,-0.84,2.82,-2.605,2.82c-1.789,0,-2.602,-0.785,-2.602,-2.82
M102.273,13.98v3.105h0.664c0.977,0,1.629,-0.203,1.629,-1.559c0,-1.344,-0.652,-1.547,-1.629,-1.547ZM101.027,12.922h2.035c1.625,0,2.793,0.609,2.793,2.605c0,1.398,-0.68,2.074,-1.531,2.387l1.871,3.824h-1.426l-1.656,-3.594h-0.84v3.594h-1.246v-8.816
M107.551,12.922h4.121v1.059h-2.875v2.699h2.32v1.043h-2.32v2.961h2.875v1.055h-4.121Z
M21.52,0.48h3.988v1.059h-2.738v2.699h2.195v1.043h-2.195v4.016h-1.25Z
M27.379,6.246h1.941l-0.367,-1.465c-0.191,-0.734,-0.434,-1.859,-0.586,-2.836c-0.16,0.977,-0.418,2.102,-0.605,2.836ZM27.719,0.48h1.289l2.344,8.816h-1.301l-0.516,-1.992h-2.398l-0.504,1.992h-1.262l2.348,-8.816
M31.988,4.891c0,-3.297,0.723,-4.574,2.863,-4.574c0.652,0,1.234,0.164,1.52,0.328v1.152c-0.324,-0.176,-0.895,-0.355,-1.438,-0.355c-1.289,0,-1.652,0.586,-1.652,3.449c0,2.887,0.391,3.457,1.652,3.457c0.555,0,1.195,-0.191,1.52,-0.379v1.152c-0.285,0.164,-0.965,0.34,-1.574,0.34c-2.32,0.012,-2.891,-1.277,-2.891,-4.57
M37.668,6.637v-6.156h1.246v6.211c0,1.305,0.449,1.684,1.355,1.684c0.91,0,1.359,-0.379,1.359,-1.684v-6.211h1.246v6.156c0,2.008,-0.84,2.824,-2.605,2.824c-1.789,0,-2.602,-0.789,-2.602,-2.824
M44.773,0.48h1.246v7.758h2.742v1.059h-3.988Z
M48.328,0.48h5.059v1.059h-1.914v7.758h-1.246v-7.758h-1.898Z
M56.285,5.637l-2.414,-5.156h1.367l1.047,2.375c0.242,0.566,0.473,1.18,0.621,1.723c0.164,-0.543,0.41,-1.156,0.652,-1.723l1.047,-2.375h1.328l-2.402,5.156v3.66h-1.246Z
M67.098,4.891c0,-2.77,-0.285,-3.488,-1.426,-3.488c-1.137,0,-1.41,0.719,-1.41,3.488c0,2.766,0.273,3.484,1.41,3.484c1.141,0,1.426,-0.719,1.426,-3.484ZM62.973,4.891c0,-3.652,0.871,-4.574,2.699,-4.574c1.887,0,2.715,0.883,2.715,4.574c0,3.66,-0.867,4.57,-2.715,4.57c-1.871,0,-2.699,-0.867,-2.699,-4.57
M70.012,0.48h3.988v1.059h-2.738v2.699h2.195v1.043h-2.195v4.016h-1.25Z
M77.84,0.48h4.125v1.059h-2.875v2.699h2.32v1.043h-2.32v2.957h2.875v1.059h-4.125Z
M83.605,0.48h1.438l2.781,7.027c-0.094,-0.719,-0.176,-1.562,-0.176,-2.348v-4.68h1.191v8.816h-1.438l-2.809,-7.055c0.109,0.719,0.203,1.574,0.203,2.375v4.68h-1.191Z
M90.469,4.891c0,-3.473,0.922,-4.574,3.215,-4.574c0.648,0,1.34,0.176,1.641,0.355v1.152c-0.328,-0.191,-0.949,-0.395,-1.547,-0.395c-1.465,0,-2.023,0.543,-2.023,3.461c0,2.887,0.395,3.484,1.672,3.484c0.391,0,0.719,-0.055,0.961,-0.121v-2.945h-1.301v-1.059h2.551v4.762c-0.258,0.164,-1.289,0.449,-2.199,0.449c-2.387,0,-2.969,-1.25,-2.969,-4.57
M97.477,9.297h1.25v-8.816h-1.25Z
M100.691,0.48h1.438l2.781,7.027c-0.094,-0.719,-0.176,-1.562,-0.176,-2.348v-4.68h1.195v8.816h-1.441l-2.805,-7.055c0.105,0.719,0.203,1.574,0.203,2.375v4.68h-1.195Z
M107.895,0.48h4.121v1.059h-2.875v2.699h2.32v1.043h-2.32v2.957h2.875v1.059h-4.121Z
M113.656,0.48h4.125v1.059h-2.875v2.699h2.32v1.043h-2.32v2.957h2.875v1.059h-4.125Z
M120.668,1.539v3.105h0.664c0.977,0,1.629,-0.203,1.629,-1.559c0,-1.344,-0.652,-1.547,-1.629,-1.547ZM119.422,0.48h2.031c1.629,0,2.797,0.609,2.797,2.605c0,1.395,-0.68,2.074,-1.531,2.387l1.871,3.824h-1.426l-1.656,-3.594h-0.84v3.594h-1.246v-8.816
M125.941,9.297h1.25v-8.816h-1.25Z
M129.156,0.48h1.438l2.781,7.027c-0.094,-0.719,-0.176,-1.562,-0.176,-2.348v-4.68h1.195v8.816h-1.438l-2.809,-7.055c0.109,0.719,0.203,1.574,0.203,2.375v4.68h-1.195Z
M136.02,4.891c0,-3.473,0.922,-4.574,3.215,-4.574c0.652,0,1.344,0.176,1.641,0.355v1.152c-0.324,-0.191,-0.949,-0.395,-1.547,-0.395c-1.465,0,-2.02,0.543,-2.02,3.461c0,2.887,0.391,3.484,1.668,3.484c0.395,0,0.719,-0.055,0.961,-0.121v-2.945h-1.301v-1.059h2.551v4.762c-0.258,0.164,-1.289,0.449,-2.199,0.449c-2.387,0,-2.969,-1.25,-2.969,-4.57
M0.262,21.738h1.246v-3.684h-1.246Z
M2.754,21.738h1.246v-8.219h-1.246Z
M5.246,21.738h1.25v-12.754h-1.25Z
M8.586,0.48h-0.844v21.258h1.25v-19.086l7.027,7.027v12.059h1.246v-12.578Z
"/>
</g>
</svg>

<?xml version="1.0" encoding="UTF-8"?>
<svg xmlns="http://www.w3.org/2000/svg" xmlns:xlink="http://www.w3.org/1999/xlink" width="142pt" height="22pt" viewBox="0 0 142 22" version="1.1">
<g id="surface1">
<path fill="#FFFFFF" d="M22.551,18.688L24.492,18.688L24.129,17.223C23.938,16.488,23.691,15.363,23.543,14.387C23.383,15.363,23.121,16.488,22.934,17.223Z M22.895,12.922L24.18,12.922L26.527,21.738L25.227,21.738L24.711,19.746L22.309,19.746L21.805,21.738L20.543,21.738L22.895,12.922"/>
<path fill="#FFFFFF" d="M27.504,12.922L28.941,12.922L31.723,19.949C31.629,19.23,31.543,18.391,31.543,17.602L31.543,12.922L32.738,12.922L32.738,21.738L31.301,21.738L28.492,14.688C28.602,15.406,28.699,16.258,28.699,17.059L28.699,21.738L27.504,21.738L27.504,12.922"/>
<path fill="#FFFFFF" d="M35.953,13.953L35.953,20.707L36.914,20.707C38.191,20.707,38.57,20.125,38.57,17.332C38.57,14.535,38.191,13.953,36.914,13.953Z M34.703,12.922L37.012,12.922C39.316,12.922,39.859,14.156,39.859,17.332C39.859,20.465,39.301,21.738,37.012,21.738L34.703,21.738L34.703,12.922"/>
<path fill="#FFFFFF" d="M45.082,18.688L47.02,18.688L46.652,17.223C46.465,16.488,46.219,15.363,46.07,14.387C45.906,15.363,45.652,16.488,45.461,17.223Z M45.418,12.922L46.707,12.922L49.055,21.738L47.754,21.738L47.234,19.746L44.836,19.746L44.336,21.738L43.074,21.738L45.418,12.922"/>
<path fill="#FFFFFF" d="M51.277,13.98L51.277,17.086L51.941,17.086C52.918,17.086,53.57,16.883,53.57,15.527C53.57,14.184,52.918,13.98,51.941,13.98Z M50.031,12.922L52.066,12.922C53.691,12.922,54.859,13.531,54.859,15.527C54.859,16.926,54.18,17.602,53.328,17.914L55.199,21.738L53.773,21.738L52.117,18.145L51.277,18.145L51.277,21.738L50.031,21.738L50.031,12.922"/>
<path fill="#FFFFFF" d="M56.148,17.332C56.148,14.035,56.863,12.762,59.008,12.762C59.66,12.762,60.242,12.922,60.527,13.086L60.527,14.238C60.203,14.062,59.633,13.887,59.09,13.887C57.801,13.887,57.434,14.469,57.434,17.332C57.434,20.219,57.828,20.789,59.09,20.789C59.648,20.789,60.281,20.602,60.609,20.41L60.609,21.562C60.324,21.727,59.648,21.902,59.035,21.902C56.715,21.918,56.148,20.629,56.148,17.332"/>
<path fill="#FFFFFF" d="M65.969,17.738L63.281,17.738L63.281,21.738L62.031,21.738L62.031,12.922L63.281,12.922L63.281,16.68L65.969,16.68L65.969,12.922L67.215,12.922L67.215,21.738L65.969,21.738L65.969,17.738"/>
<path fill="#FFFFFF" d="M69.18,21.738L70.43,21.738L70.43,12.922L69.18,12.922Z M69.18,21.738"/>
<path fill="#FFFFFF" d="M71.469,12.922L76.531,12.922L76.531,13.98L74.617,13.98L74.617,21.738L73.367,21.738L73.367,13.98L71.469,13.98L71.469,12.922"/>
<path fill="#FFFFFF" d="M77.574,12.922L81.695,12.922L81.695,13.98L78.824,13.98L78.824,16.68L81.141,16.68L81.141,17.723L78.824,17.723L78.824,20.684L81.695,20.684L81.695,21.738L77.574,21.738L77.574,12.922"/>
<path fill="#FFFFFF" d="M82.797,17.332C82.797,14.035,83.516,12.762,85.656,12.762C86.309,12.762,86.891,12.922,87.176,13.086L87.176,14.238C86.852,14.062,86.281,13.887,85.738,13.887C84.449,13.887,84.086,14.469,84.086,17.332C84.086,20.219,84.477,20.789,85.738,20.789C86.297,20.789,86.934,20.602,87.258,20.41L87.258,21.562C86.973,21.727,86.297,21.902,85.684,21.902C83.363,21.918,82.797,20.629,82.797,17.332"/>
<path fill="#FFFFFF" d="M87.91,12.922L92.973,12.922L92.973,13.98L91.059,13.98L91.059,21.738L89.812,21.738L89.812,13.98L87.91,13.98L87.91,12.922"/>
<path fill="#FFFFFF" d="M93.922,19.082L93.922,12.922L95.168,12.922L95.168,19.137C95.168,20.438,95.617,20.816,96.523,20.816C97.434,20.816,97.883,20.438,97.883,19.137L97.883,12.922L99.129,12.922L99.129,19.082C99.129,21.09,98.289,21.902,96.523,21.902C94.734,21.902,93.922,21.117,93.922,19.082"/>
<path fill="#FFFFFF" d="M102.273,13.98L102.273,17.086L102.938,17.086C103.914,17.086,104.566,16.883,104.566,15.527C104.566,14.184,103.914,13.98,102.938,13.98Z M101.027,12.922L103.062,12.922C104.688,12.922,105.855,13.531,105.855,15.527C105.855,16.926,105.176,17.602,104.324,17.914L106.195,21.738L104.77,21.738L103.113,18.145L102.273,18.145L102.273,21.738L101.027,21.738L101.027,12.922"/>
<path fill="#FFFFFF" d="M107.551,12.922L111.672,12.922L111.672,13.98L108.797,13.98L108.797,16.68L111.117,16.68L111.117,17.723L108.797,17.723L108.797,20.684L111.672,20.684L111.672,21.738L107.551,21.738L107.551,12.922"/>
<path fill="#FFFFFF" d="M21.52,0.48L25.508,0.48L25.508,1.539L22.77,1.539L22.77,4.238L24.965,4.238L24.965,5.281L22.77,5.281L22.77,9.297L21.52,9.297L21.52,0.48"/>
<path fill="#FFFFFF" d="M27.379,6.246L29.32,6.246L28.953,4.781C28.762,4.047,28.52,2.922,28.367,1.945C28.207,2.922,27.949,4.047,27.762,4.781Z M27.719,0.48L29.008,0.48L31.352,9.297L30.051,9.297L29.535,7.305L27.137,7.305L26.633,9.297L25.371,9.297L27.719,0.48"/>
<path fill="#FFFFFF" d="M31.988,4.891C31.988,1.594,32.711,0.316,34.852,0.316C35.504,0.316,36.086,0.48,36.371,0.645L36.371,1.797C36.047,1.621,35.477,1.441,34.934,1.441C33.645,1.441,33.281,2.027,33.281,4.891C33.281,7.777,33.672,8.348,34.934,8.348C35.488,8.348,36.129,8.156,36.453,7.969L36.453,9.121C36.168,9.285,35.488,9.461,34.879,9.461C32.559,9.473,31.988,8.184,31.988,4.891"/>
<path fill="#FFFFFF" d="M37.668,6.637L37.668,0.48L38.914,0.48L38.914,6.691C38.914,7.996,39.363,8.375,40.27,8.375C41.18,8.375,41.629,7.996,41.629,6.691L41.629,0.48L42.875,0.48L42.875,6.637C42.875,8.645,42.035,9.461,40.27,9.461C38.48,9.461,37.668,8.672,37.668,6.637"/>
<path fill="#FFFFFF" d="M44.773,0.48L46.02,0.48L46.02,8.238L48.762,8.238L48.762,9.297L44.773,9.297L44.773,0.48"/>
<path fill="#FFFFFF" d="M48.328,0.48L53.387,0.48L53.387,1.539L51.473,1.539L51.473,9.297L50.227,9.297L50.227,1.539L48.328,1.539L48.328,0.48"/>
<path fill="#FFFFFF" d="M56.285,5.637L53.871,0.48L55.238,0.48L56.285,2.855C56.527,3.422,56.758,4.035,56.906,4.578C57.07,4.035,57.316,3.422,57.559,2.855L58.605,0.48L59.934,0.48L57.531,5.637L57.531,9.297L56.285,9.297L56.285,5.637"/>
<path fill="#FFFFFF" d="M67.098,4.891C67.098,2.121,66.812,1.402,65.672,1.402C64.535,1.402,64.262,2.121,64.262,4.891C64.262,7.656,64.535,8.375,65.672,8.375C66.812,8.375,67.098,7.656,67.098,4.891Z M62.973,4.891C62.973,1.238,63.844,0.316,65.672,0.316C67.559,0.316,68.387,1.199,68.387,4.891C68.387,8.551,67.52,9.461,65.672,9.461C63.801,9.461,62.973,8.594,62.973,4.891"/>
<path fill="#FFFFFF" d="M70.012,0.48L74,0.48L74,1.539L71.262,1.539L71.262,4.238L73.457,4.238L73.457,5.281L71.262,5.281L71.262,9.297L70.012,9.297L70.012,0.48"/>
<path fill="#FFFFFF" d="M77.84,0.48L81.965,0.48L81.965,1.539L79.09,1.539L79.09,4.238L81.41,4.238L81.41,5.281L79.09,5.281L79.09,8.238L81.965,8.238L81.965,9.297L77.84,9.297L77.84,0.48"/>
<path fill="#FFFFFF" d="M83.605,0.48L85.043,0.48L87.824,7.508C87.73,6.789,87.648,5.945,87.648,5.16L87.648,0.48L88.84,0.48L88.84,9.297L87.402,9.297L84.594,2.242C84.703,2.961,84.797,3.816,84.797,4.617L84.797,9.297L83.605,9.297L83.605,0.48"/>
<path fill="#FFFFFF" d="M90.469,4.891C90.469,1.418,91.391,0.316,93.684,0.316C94.332,0.316,95.023,0.492,95.324,0.672L95.324,1.824C94.996,1.633,94.375,1.43,93.777,1.43C92.312,1.43,91.754,1.973,91.754,4.891C91.754,7.777,92.148,8.375,93.426,8.375C93.816,8.375,94.145,8.32,94.387,8.254L94.387,5.309L93.086,5.309L93.086,4.25L95.637,4.25L95.637,9.012C95.379,9.176,94.348,9.461,93.438,9.461C91.051,9.461,90.469,8.211,90.469,4.891"/>
<path fill="#FFFFFF" d="M97.477,9.297L98.727,9.297L98.727,0.48L97.477,0.48Z M97.477,9.297"/>
<path fill="#FFFFFF" d="M100.691,0.48L102.129,0.48L104.91,7.508C104.816,6.789,104.734,5.945,104.734,5.16L104.734,0.48L105.93,0.48L105.93,9.297L104.488,9.297L101.684,2.242C101.789,2.961,101.887,3.816,101.887,4.617L101.887,9.297L100.691,9.297L100.691,0.48"/>
<path fill="#FFFFFF" d="M107.895,0.48L112.016,0.48L112.016,1.539L109.141,1.539L109.141,4.238L111.461,4.238L111.461,5.281L109.141,5.281L109.141,8.238L112.016,8.238L112.016,9.297L107.895,9.297L107.895,0.48"/>
<path fill="#FFFFFF" d="M113.656,0.48L117.781,0.48L117.781,1.539L114.906,1.539L114.906,4.238L117.227,4.238L117.227,5.281L114.906,5.281L114.906,8.238L117.781,8.238L117.781,9.297L113.656,9.297L113.656,0.48"/>
<path fill="#FFFFFF" d="M120.668,1.539L120.668,4.645L121.332,4.645C122.309,4.645,122.961,4.441,122.961,3.086C122.961,1.742,122.309,1.539,121.332,1.539Z M119.422,0.48L121.453,0.48C123.082,0.48,124.25,1.09,124.25,3.086C124.25,4.48,123.57,5.16,122.719,5.473L124.59,9.297L123.164,9.297L121.508,5.703L120.668,5.703L120.668,9.297L119.422,9.297L119.422,0.48"/>
<path fill="#FFFFFF" d="M125.941,9.297L127.191,9.297L127.191,0.48L125.941,0.48Z M125.941,9.297"/>
<path fill="#FFFFFF" d="M129.156,0.48L130.594,0.48L133.375,7.508C133.281,6.789,133.199,5.945,133.199,5.16L133.199,0.48L134.395,0.48L134.395,9.297L132.957,9.297L130.148,2.242C130.258,2.961,130.352,3.816,130.352,4.617L130.352,9.297L129.156,9.297L129.156,0.48"/>
<path fill="#FFFFFF" d="M136.02,4.891C136.02,1.418,136.941,0.316,139.234,0.316C139.887,0.316,140.578,0.492,140.875,0.672L140.875,1.824C140.551,1.633,139.926,1.43,139.328,1.43C137.863,1.43,137.309,1.973,137.309,4.891C137.309,7.777,137.699,8.375,138.977,8.375C139.371,8.375,139.695,8.32,139.938,8.254L139.938,5.309L138.637,5.309L138.637,4.25L141.188,4.25L141.188,9.012C140.93,9.176,139.898,9.461,138.988,9.461C136.602,9.461,136.02,8.211,136.02,4.891"/>
<path fill="#FFFFFF" d="M0.262,21.738L1.508,21.738L1.508,18.055L0.262,18.055Z M0.262,21.738"/>
<path fill="#FFFFFF" d="M2.754,21.738L4,21.738L4,13.52L2.754,13.52Z M2.754,21.738"/>
<path fill="#FFFFFF" d="M5.246,21.738L6.496,21.738L6.496,8.984L5.246,8.984Z M5.246,21.738"/>
<path fill="#FFFFFF" d="M8.586,0.48L7.742,0.48L7.742,21.738L8.992,21.738L8.992,2.652L16.02,9.68L16.02,21.738L17.266,21.738L17.266,9.16L8.586,0.48"/>
</g>
</svg>
